src/assets/icons/amazon.svg

<svg width="32" height="22" viewBox="0 0 32 22" fill="none" xmlns="http://www.w3.org/2000/svg">
<path d="M18.3781 4.46426C18.0049 4.14328 17.4251 3.98254 16.638 3.98254C16.2485 3.98254 15.859 4.01785 15.4696 4.08738C15.0795 4.1576 14.7524 4.25011 14.4872 4.36559C14.3879 4.40717 14.3212 4.45004 14.2881 4.4953C14.255 4.54065 14.2381 4.62132 14.2381 4.73621V5.06963C14.2381 5.21793 14.2918 5.29243 14.3998 5.29243C14.436 5.29193 14.4718 5.28565 14.5059 5.27383C14.5433 5.2614 14.5746 5.25145 14.5989 5.2428C15.2374 5.05341 15.8459 4.95842 16.4264 4.95842C16.9232 4.95842 17.2715 5.04914 17.4706 5.23096C17.6697 5.41229 17.769 5.72522 17.769 6.17034V6.98608C17.1891 6.84583 16.6667 6.7762 16.2023 6.7762C15.4733 6.7762 14.8935 6.95564 14.4623 7.31392C14.0315 7.67211 13.8156 8.15264 13.8156 8.75422C13.8156 9.31542 13.9897 9.76183 14.338 10.0958C14.6857 10.4299 15.1581 10.5962 15.7548 10.5962C16.1112 10.5962 16.4695 10.526 16.8302 10.3864C17.191 10.2467 17.5199 10.048 17.8182 9.79287L17.8807 10.2007C17.9057 10.3572 17.9967 10.4354 18.1547 10.4354H18.689C18.8544 10.4354 18.938 10.3529 18.938 10.1884V5.96046C18.9374 5.28438 18.7508 4.78584 18.3781 4.46426ZM17.769 9.03979C17.4956 9.24589 17.2097 9.40236 16.9114 9.50978C16.613 9.61721 16.3272 9.67062 16.0538 9.67062C15.7305 9.67062 15.4821 9.58607 15.3079 9.41728C15.1338 9.24838 15.047 9.00747 15.047 8.69404C15.047 7.97688 15.5152 7.6181 16.4514 7.6181C16.6667 7.6181 16.8883 7.63302 17.1161 7.66157C17.3439 7.69071 17.5617 7.7299 17.769 7.77894V9.03979ZM12.7726 5.86428C12.6522 5.46441 12.4806 5.12423 12.2565 4.84423C12.033 4.56423 11.7596 4.34938 11.4363 4.20107C11.1136 4.05266 10.7529 3.97876 10.3547 3.97876C9.98201 3.97876 9.61691 4.04839 9.26111 4.18864C8.90481 4.32889 8.56901 4.53508 8.25381 4.80693L8.19201 4.41085C8.16701 4.24633 8.07151 4.16377 7.90551 4.16377H7.35871C7.19331 4.16377 7.11031 4.24633 7.11031 4.41085V12.7325C7.11031 12.8977 7.19331 12.9796 7.35871 12.9796H8.09211C8.25811 12.9796 8.34051 12.8971 8.34051 12.7325V9.83942C8.87921 10.3255 9.52151 10.5689 10.2673 10.5689C10.673 10.5689 11.0419 10.4882 11.3733 10.328C11.7047 10.1673 11.9862 9.94247 12.2183 9.65381C12.4506 9.36575 12.6309 9.01562 12.7589 8.60273C12.8875 8.19054 12.9518 7.72861 12.9518 7.21764C12.953 6.71533 12.8925 6.26404 12.7726 5.86428ZM9.98201 9.57931C9.41781 9.57931 8.87102 9.38187 8.34111 8.98578V5.53643C8.86292 5.15716 9.41842 4.96777 10.0071 4.96777C11.1342 4.96777 11.6978 5.73885 11.6978 7.27971C11.6972 8.81321 11.1255 9.57931 9.98201 9.57931ZM22.9825 11.5319L25.7175 4.6077C25.775 4.46745 25.8043 4.36867 25.8043 4.31088C25.8043 4.21221 25.7463 4.16258 25.6302 4.16258H24.9342C24.8013 4.16258 24.7108 4.18366 24.6602 4.22464C24.6103 4.26622 24.561 4.35694 24.5111 4.49719L22.8327 9.29433L21.0926 4.49719C21.0426 4.35694 20.9933 4.26622 20.9434 4.22464C20.8934 4.18366 20.8024 4.16258 20.6694 4.16258H19.9235C19.8075 4.16258 19.7494 4.21221 19.7494 4.31088C19.7494 4.36858 19.7781 4.46735 19.8362 4.6077L22.2354 10.4932L21.9994 11.124C21.8584 11.52 21.7011 11.792 21.527 11.9404C21.3529 12.0887 21.1082 12.1626 20.7936 12.1626C20.6526 12.1626 20.5408 12.1539 20.4584 12.1377C20.3754 12.1216 20.313 12.1129 20.2718 12.1129C20.1476 12.1129 20.0852 12.1911 20.0852 12.3476V12.6692C20.0852 12.7847 20.1058 12.8691 20.1476 12.9225C20.1888 12.9758 20.255 13.0156 20.3467 13.0399C20.5533 13.097 20.7899 13.1267 21.0551 13.1267C21.5276 13.1267 21.9108 13.0032 22.2048 12.7555C22.5 12.509 22.7591 12.1005 22.9825 11.5319ZM25.6938 15.9316C23.0662 17.8606 19.2569 18.8862 15.9764 18.8862C11.3789 18.8862 7.23891 17.1957 4.10631 14.382C3.86031 14.1611 4.07941 13.8593 4.37531 14.0307C7.75511 15.9869 11.935 17.1652 16.2523 17.1652C19.1646 17.1652 22.3659 16.5643 25.3119 15.3214C25.7556 15.1333 26.1281 15.6119 25.6938 15.9316ZM26.7867 14.69C27.1231 15.1184 26.4129 16.8823 26.0957 17.67C25.9997 17.9084 26.2057 18.0047 26.4228 17.824C27.8322 16.6513 28.1967 14.1934 27.9083 13.8382C27.6218 13.4862 25.1577 13.1832 23.6535 14.2337C23.4219 14.3952 23.4619 14.6187 23.7184 14.5875C24.5654 14.4871 26.4509 14.2617 26.7867 14.69Z" fill="#FF9900"/>
</svg>

<svg xmlns="http://www.w3.org/2000/svg" width="32" height="22" fill="none"><path fill="#F90" d="M18.378 4.464c-.373-.32-.953-.481-1.74-.481-.39 0-.779.035-1.168.104-.39.07-.718.163-.983.279a.474.474 0 0 0-.199.13c-.033.045-.05.125-.05.24v.334c0 .148.054.222.162.222a.338.338 0 0 0 .106-.018l.093-.031a6.423 6.423 0 0 1 1.827-.285c.497 0 .846.091 1.045.273.199.181.298.494.298.94v.815a6.731 6.731 0 0 0-1.567-.21c-.729 0-1.309.18-1.74.538-.43.358-.646.839-.646 1.44 0 .561.174 1.008.522 1.342.348.334.82.5 1.417.5.356 0 .714-.07 1.075-.21.361-.14.69-.338.988-.593l.063.408c.025.156.116.234.274.234h.534c.165 0 .249-.082.249-.247V5.96c0-.676-.187-1.174-.56-1.496ZM17.77 9.04c-.273.206-.56.362-.858.47-.298.107-.584.16-.857.16-.323 0-.572-.084-.746-.253-.174-.169-.261-.41-.261-.723 0-.717.468-1.076 1.404-1.076.216 0 .437.015.665.044.228.029.446.068.653.117v1.26Zm-4.996-3.176c-.12-.4-.292-.74-.516-1.02a2.223 2.223 0 0 0-.82-.643 2.559 2.559 0 0 0-1.082-.222c-.373 0-.738.07-1.094.21-.356.14-.692.346-1.007.618l-.062-.396c-.025-.165-.12-.247-.286-.247h-.547c-.166 0-.249.082-.249.247v8.322c0 .165.083.247.249.247h.733c.166 0 .249-.083.249-.248V9.84c.538.486 1.18.73 1.926.73.406 0 .775-.08 1.106-.241.332-.16.613-.386.845-.674a3.13 3.13 0 0 0 .54-1.051c.13-.412.194-.874.194-1.385a4.668 4.668 0 0 0-.18-1.354ZM9.982 9.58c-.564 0-1.111-.197-1.64-.593v-3.45c.52-.379 1.076-.568 1.665-.568 1.127 0 1.69.77 1.69 2.312 0 1.533-.571 2.3-1.715 2.3Zm13 1.953 2.736-6.924a.948.948 0 0 0 .086-.297c0-.099-.058-.148-.174-.148h-.696c-.133 0-.223.02-.274.062-.05.041-.099.132-.149.272l-1.678 4.797-1.74-4.797c-.05-.14-.1-.23-.15-.272-.05-.041-.14-.062-.274-.062h-.745c-.116 0-.175.05-.175.148 0 .058.03.156.087.297l2.4 5.885-.237.631c-.14.396-.298.668-.472.816-.174.149-.419.223-.733.223-.141 0-.253-.01-.336-.025a1.098 1.098 0 0 0-.186-.025c-.124 0-.187.078-.187.235v.321c0 .116.02.2.063.253a.358.358 0 0 0 .199.118c.206.057.443.087.708.087.473 0 .856-.124 1.15-.372.295-.246.554-.655.778-1.223Zm2.712 4.4c-2.628 1.929-6.437 2.954-9.718 2.954-4.597 0-8.737-1.69-11.87-4.504-.246-.22-.027-.523.27-.351 3.38 1.956 7.559 3.134 11.876 3.134 2.913 0 6.114-.6 9.06-1.844.444-.188.816.29.382.61Zm1.093-1.242c.336.428-.374 2.192-.691 2.98-.096.238.11.335.327.154 1.41-1.173 1.774-3.63 1.485-3.986-.286-.352-2.75-.655-4.255.396-.231.161-.191.385.065.354.847-.1 2.733-.326 3.069.102Z"/></svg>
